X: 32
T:Sally Gardens
% Nottingham Music Database
S:via PR
M:4/4
L:1/4
K:G
D/2F/2|:"G"GD/2G/2 BG/2B/2|d/2B/2e/2B/2 d/2B/2A/2B/2|"G"dB/2d/2 "C"e/2f/2g/2e/2\
|
"D"d/2B/2A/2B/2 "Em"G/2E/2D/2E/2|"G"GD/2G/2 BG/2B/2|d/2B/2e/2B/2 d/2B/2A/2B/2|
"G"dB/2d/2 "C"e/2f/2g/2e/2|1"D"d/2B/2A/2B/2 "G"GD/2F/2:|2\
"D"d/2B/2A/2B/2 "G"GB/2c/2||
"G"d/2g/2g/2f/2 gd/2g/2|gb/2g/2 a/2g/2e/2d/2|"Am"e/2a/2a/2g/2 ae/2g/2|\
"D"ab/2g/2 a/2g/2e/2g/2|
"G"d/2g/2g/2f/2 gd/2g/2|gb/2g/2 a/2g/2e/2d/2|"G"dB/2d/2 "C"e/2f/2g/2e/2|1\
"D"d/2B/2c/2A/2 "G"GB/2c/2:|2"D"d/2B/2c/2A/2 "G"G||


